X:1
T: Mrs. Grieve of Howdan
C:
R:Strathspey
Q: 128
K:D
M:4/4
L:1/16
|:G2|FG3 AF3 GB3 A4|Be3 e3d c3B A3G|FG3 AF3 GB3 A3d|B3e dcBc d6 G2|
FG3 AF3 GB3 A4|Be3 e3d c3B A3G|FG3 AF3 GB3 A3d|B3e dcBc d6 g2|
f3e dg3 fa3 fd3|Be3 e3d c3d eg3|f3e dg3 fa3 fd3|B3e dcBc d6 g2|
f3e dg3 fa3 fd3|Be3 e3d c3d eg3|f3a gfed cdec d3A|B3e dcBc d6:|
